findly-builder/apps/searchassist/src/assets/icons/actions/unlink.svg

<svg width="13" height="14" viewBox="0 0 13 14" fill="none" xmlns="http://www.w3.org/2000/svg">
<path d="M10.3784 0.992188C9.70656 0.992188 9.02687 1.23828 8.53859 1.72656L6.73 3.53516C6.69875 3.56641 6.67531 3.60547 6.64797 3.64062L7.35109 4.34375C7.38234 4.3125 7.40578 4.27344 7.43703 4.24219L9.24562 2.4375C9.55031 2.13281 9.95265 1.96875 10.3784 1.96875C10.8081 1.96875 11.2105 2.13281 11.5308 2.45312C12.1558 3.07812 12.1558 4.09766 11.5308 4.72656L9.72609 6.53125C9.69484 6.5625 9.65578 6.58594 9.62453 6.61719L10.3277 7.32031C10.3628 7.29297 10.4019 7.26953 10.4331 7.23828L12.2378 5.42969C13.2573 4.41406 13.2573 2.76172 12.2222 1.72656C11.73 1.23828 11.0542 0.992188 10.3784 0.992188ZM2.51515 2.99609C2.31203 2.99609 2.12844 3.12109 2.05422 3.30859C1.97609 3.49609 2.02297 3.71484 2.1714 3.85547L4.1714 5.85547C4.36672 6.05078 4.68312 6.05078 4.87844 5.85547C5.07375 5.66016 5.07375 5.33984 4.87453 5.14844L2.87453 3.14844C2.78078 3.05078 2.65187 2.99609 2.51515 2.99609ZM2.76515 7.58594C2.71047 7.63281 2.64797 7.67187 2.59328 7.72656L0.784685 9.53516C-0.23094 10.5508 -0.23094 12.2031 0.804217 13.2383C1.31203 13.7461 1.98 14 2.64797 14C3.31203 14 3.98 13.7461 4.48781 13.2383L6.2964 11.4336C6.35109 11.375 6.39015 11.3125 6.43703 11.2539L5.7339 10.5469C5.68703 10.6094 5.64406 10.668 5.58547 10.7227L3.78078 12.5312C3.15187 13.1562 2.13625 13.1562 1.49172 12.5117C1.18703 12.207 1.02297 11.8047 1.02297 11.375C1.02297 10.9492 1.18703 10.5469 1.49172 10.2422L3.30031 8.4375C3.355 8.38281 3.41359 8.33984 3.47609 8.29297L2.76515 7.58594ZM8.51515 8.99609C8.31203 8.99609 8.12844 9.12109 8.05422 9.30859C7.97609 9.49609 8.02297 9.71484 8.1714 9.85547L10.1714 11.8555C10.3667 12.0508 10.6831 12.0508 10.8784 11.8555C11.0737 11.6602 11.0737 11.3398 10.8745 11.1445L8.87453 9.14844C8.78078 9.05078 8.65187 8.99609 8.51515 8.99609Z" fill="#FF281B"/>
</svg>

<svg width="13" height="14" fill="none" xmlns="http://www.w3.org/2000/svg"><path d="M10.378.992c-.671 0-1.351.246-1.84.735L6.73 3.535c-.031.031-.055.07-.082.106l.703.703c.031-.032.055-.07.086-.102l1.809-1.804a1.606 1.606 0 0 1 2.285.016 1.613 1.613 0 0 1 0 2.273L9.726 6.53c-.031.032-.07.055-.101.086l.703.703c.035-.027.074-.05.105-.082l1.805-1.808a2.61 2.61 0 0 0-.016-3.703c-.492-.489-1.168-.735-1.844-.735ZM2.515 2.996a.497.497 0 0 0-.46.313.494.494 0 0 0 .116.546l2 2a.5.5 0 0 0 .707 0 .496.496 0 0 0-.003-.707l-2-2a.496.496 0 0 0-.36-.152Zm.25 4.59c-.055.047-.117.086-.172.14L.785 9.537a2.614 2.614 0 0 0 .02 3.702A2.6 2.6 0 0 0 2.647 14c.664 0 1.332-.254 1.84-.762l1.808-1.804c.055-.059.094-.121.141-.18l-.703-.707c-.047.062-.09.121-.149.176L3.781 12.53a1.614 1.614 0 0 1-2.29-.02 1.592 1.592 0 0 1-.468-1.136c0-.426.164-.828.469-1.133L3.3 8.437c.055-.054.114-.097.176-.144l-.71-.707Zm5.75 1.41a.497.497 0 0 0-.46.313.494.494 0 0 0 .116.546l2 2a.5.5 0 1 0 .704-.71l-2-1.997a.496.496 0 0 0-.36-.152Z" fill="#FF281B"/></svg>
